src/lib/packages/icons/src/assets/line/chart-line.svg

<svg width="24" height="24" viewBox="0 0 24 24" fill="none" xmlns="http://www.w3.org/2000/svg">
<path d="M21.75 20C21.75 20.414 21.414 20.75 21 20.75H4.5C3.091 20.75 2.25 19.909 2.25 18.5V4C2.25 3.586 2.586 3.25 3 3.25C3.414 3.25 3.75 3.586 3.75 4V18.5C3.75 19.089 3.911 19.25 4.5 19.25H21C21.414 19.25 21.75 19.586 21.75 20ZM7 14.75C7.192 14.75 7.384 14.677 7.53 14.53L10.825 11.235C10.923 11.137 11.08 11.138 11.178 11.235L12.784 12.829C13.466 13.507 14.576 13.504 15.257 12.822L19.531 8.53003C19.823 8.23703 19.823 7.76099 19.529 7.46899C19.235 7.17599 18.76 7.17795 18.468 7.47095L14.194 11.7629C14.096 11.8599 13.938 11.861 13.84 11.764L12.235 10.17C11.554 9.49404 10.445 9.49395 9.76401 10.174L6.469 13.469C6.176 13.762 6.176 14.237 6.469 14.53C6.616 14.677 6.808 14.75 7 14.75Z" fill="currentColor"/>
</svg>

<svg xmlns="http://www.w3.org/2000/svg" width="24" height="24" fill="none"><path fill="currentColor" d="M21.75 20a.75.75 0 0 1-.75.75H4.5c-1.409 0-2.25-.841-2.25-2.25V4a.75.75 0 0 1 1.5 0v14.5c0 .589.161.75.75.75H21a.75.75 0 0 1 .75.75ZM7 14.75a.744.744 0 0 0 .53-.22l3.295-3.295a.25.25 0 0 1 .353 0l1.606 1.594a1.754 1.754 0 0 0 2.473-.007l4.274-4.292a.75.75 0 0 0-1.063-1.059l-4.274 4.292a.252.252 0 0 1-.354.001l-1.605-1.594a1.755 1.755 0 0 0-2.471.004l-3.295 3.295A.75.75 0 0 0 7 14.75Z"/></svg>
